src/components/Icon/assets/notification-off.svg

<svg width="24" height="24" viewBox="0 0 24 24" fill="none" xmlns="http://www.w3.org/2000/svg">
<path fill-rule="evenodd" clip-rule="evenodd" d="M17.385 13.605L18.879 16.003H17.801L8.02797 6.22999C8.72297 4.91299 10.09 4.00299 11.68 4.00299C13.965 4.00299 15.825 5.86199 15.825 8.14799C15.825 10.078 16.364 11.965 17.385 13.605ZM6.56595 4.768L3.54795 1.75L2.13395 3.164L20.519 21.549L21.933 20.134L19.801 18.003H20.5C20.9 18.003 21.268 17.786 21.462 17.436C21.655 17.087 21.645 16.66 21.433 16.321L19.083 12.547C18.26 11.226 17.825 9.704 17.825 8.148C17.825 4.759 15.068 2.003 11.68 2.003C9.54195 2.003 7.66495 3.106 6.56595 4.768ZM13.6797 18.003C13.6797 19.106 12.7827 20.003 11.6797 20.003C10.5767 20.003 9.67975 19.106 9.67975 18.003H13.6797ZM4.27676 12.547L1.92676 16.321C1.71576 16.659 1.70376 17.086 1.89776 17.436C2.09176 17.786 2.45976 18.003 2.85976 18.003H7.67976C7.67976 20.209 9.47376 22.003 11.6798 22.003C13.8478 22.003 15.6088 20.267 15.6688 18.113L13.5588 16.003H4.48076L5.97376 13.605C6.69576 12.447 7.16276 11.162 7.38376 9.828L5.54376 7.987C5.54293 8.00947 5.54123 8.03159 5.53953 8.05373C5.53715 8.08479 5.53476 8.11588 5.53476 8.148C5.53476 9.705 5.09976 11.226 4.27676 12.547Z" fill="#65676A"/>
</svg>

<svg xmlns="http://www.w3.org/2000/svg" width="24" height="24" viewBox="0 0 24 24">
    <path fill="#65676A" fill-rule="evenodd" d="M5.544 7.987c-.002.054-.01.106-.01.161 0 1.557-.434 3.078-1.257 4.399l-2.35 3.774c-.211.338-.223.765-.03 1.115.195.35.563.567.963.567h4.82c0 2.206 1.794 4 4 4 2.168 0 3.929-1.736 3.989-3.89l-2.11-2.11H4.48l1.493-2.398c.722-1.158 1.189-2.443 1.41-3.777zM3.548 1.75L2.134 3.164l18.385 18.385 1.414-1.415-2.132-2.131h.699c.4 0 .768-.217.962-.567.193-.349.183-.776-.029-1.115l-2.35-3.774c-.823-1.321-1.258-2.843-1.258-4.399 0-3.389-2.757-6.145-6.145-6.145-2.138 0-4.015 1.103-5.114 2.765L3.548 1.75zM9.68 18.003h4c0 1.103-.897 2-2 2s-2-.897-2-2zm2-14c2.285 0 4.145 1.859 4.145 4.145 0 1.93.539 3.817 1.56 5.457l1.494 2.398h-1.078L8.028 6.23c.695-1.317 2.062-2.227 3.652-2.227z"/>
</svg>
